usr/share/icons/biglinux-icons-material-dark/22/actions/gnumeric-data-slicer.svg

<svg id="svg8" version="1.1" viewBox="0 0 22 22" xmlns="http://www.w3.org/2000/svg">
    <defs id="defs3051">
        <style id="current-color-scheme" type="text/css">.ColorScheme-Text {
        color:#dedede;
      }</style>
    </defs>
    <path id="path4" class="ColorScheme-Text" d="m3 3v4h4v-4zm6 0v4h4v-4zm6 0v4h4v-4zm-11 1h2v2h-2zm12 0h2v2h-2zm-13 5v4h4v-4zm1 1h2v2h-2zm-1 5v4h4v-4z" fill="currentColor"/>
    <path id="path6" d="m16 9v4.5c0 1.385-1.115 2.5-2.5 2.5-0.8187 0-1.535134-0.3955-1.990234-1h1.490234v-1h-3v3h1v-1.076172c0.6319 0.658 1.5097 1.076172 2.5 1.076172 1.939 0 3.5-1.561 3.5-3.5v-4.5z" fill="#1d99f3"/>
</svg>

<svg xmlns="http://www.w3.org/2000/svg" id="svg8" version="1.1" viewBox="0 0 22 22">
<defs id="defs3051">
<style id="current-color-scheme" type="text/css">
.ColorScheme-Text{color:#dedede}
</style>
</defs>
<path id="path4" fill="currentColor" d="M3 3v4h4V3zm6 0v4h4V3zm6 0v4h4V3zM4 4h2v2H4zm12 0h2v2h-2zM3 9v4h4V9zm1 1h2v2H4zm-1 5v4h4v-4z" class="ColorScheme-Text"/>
<path id="path6" fill="#1d99f3" d="M16 9v4.5a2.495 2.495 0 0 1-4.49 1.5H13v-1h-3v3h1v-1.076A3.45 3.45 0 0 0 13.5 17c1.939 0 3.5-1.561 3.5-3.5V9z"/>
</svg>
